X: 38769
T: Struy Lodge
R: reel
M: 4/4
K: Amajor
e|a2ef eAc2|Bcfe fBBc|a2ef eAc2|AAAB cAAc|
a2ef eAc2|Bcfe fBBc|a2ef eca2|AAAB cAAa||
cAeA cAeA|Bcfe fBBa|cAeA cAec|Bcfe cAAa|
cAeA cAec|Bcfe fBBc|a2ef eca2|AAAB cAA||

